X:1
T:Thueringer IV
C:traditionell
R:
A:Grevesmuehlen, Mecklenburg
F:http://simonwascher.info/
Z:abc transcription Simon Wascher 27Dez02
M:2/4
L:1/8
K:C
G |\
cc/c/ cc | c2 Gc | ee/e/ ee | e2 ce |\
gc'ba | (ag) .e.g | (gf).d.B | c2z :|
K:G
|: (B/c/ |\ 
d2) z(B/c/ | d2) z(B/c/ | d).g.f.e | d2 z(B/c/ |\
d).g.f.e | (ed).B.d | (dc).A.F | G2 z :|
|: (B/c/ |\
d).g.f.e | ">"d2 Bd | ">"c2 Ac | B>A G(A/B/) |\
dgfe | ">"d2 Bd | dcAF | G2 z :| 
K:C
G |\
(ed) .d/.d/.d/.d/ | (dc) .c/.c/.c/.c/ | cBAB | (d/c/).B/.A/ G2 |\
(ed) .d/.d/.d/.d/ | (dc) .c/.c/.c/.c/ | cBAB | c2z :|
 %%wordsfont Times-Italic 11pt
W:aus Simon Waschers TradArchiv

